app/client/ui/atoms/Logo/logo.svg

<svg width="98" height="80" viewBox="0 0 98 80" fill="none" xmlns="http://www.w3.org/2000/svg">
<rect width="98" height="80" fill="black" fill-opacity="0"/>
<rect width="98" height="80" fill="black" fill-opacity="0"/>
<path d="M79.2495 20.3041L98 14.0513V4.10447L48.9299 20.4678V30.4147L55.4543 28.239L67.6808 24.1619V76.0542L79.2495 72.1966V20.3041Z" fill="#40496C"/>
<path d="M48.9053 52.4628V77.8623L61.1728 73.8216V48.372L48.9053 52.4628Z" fill="#40496C"/>
<path d="M23.2806 75.436C25.6989 76.7224 27.1287 77.3388 29.7335 78.1992C31.7497 78.8652 32.9042 79.2082 35.0001 79.5603C36.9062 79.8806 37.9984 80.03 39.9316 79.995C41.7506 79.962 44.5572 79.4472 44.5572 79.4472L48.9053 77.8623V52.4628L30.5371 46.2963V52.896C30.5371 52.896 30.6827 54.0426 31.0921 54.6233C31.5246 55.237 32.6419 55.7731 32.6419 55.7731L39.6064 58.1115L39.6066 63.8162V69.4869C39.6066 69.4869 36.7435 69.9831 34.8996 69.904C32.721 69.8105 31.4994 69.4772 29.4276 68.8049C27.7747 68.2684 26.8723 67.8673 25.3425 67.0485C23.8289 66.2383 23.013 65.7064 21.6592 64.6557C20.3039 63.6039 19.5908 62.9422 18.4305 61.683C17.2565 60.4091 16.6604 59.6293 15.7086 58.1857C14.729 56.6999 14.2561 55.8105 13.5178 54.1944C12.7468 52.5069 12.3956 51.518 11.882 49.7374C11.3439 47.8723 11.1291 46.7959 10.8631 44.8744C10.5833 42.8543 10.5142 41.7031 10.5234 39.6642C10.5317 37.8279 10.555 36.7871 10.8392 34.9724C11.0877 33.3862 11.2479 32.4846 11.7863 30.9703C12.2588 29.6414 12.5539 28.8856 13.3169 27.6959C14.0011 26.629 14.4351 26.0346 15.3834 25.1876C16.2825 24.3846 16.8636 23.9877 17.9615 23.4806C19.0902 22.9594 19.7951 22.7893 21.0277 22.6104C22.3825 22.4138 23.1825 22.3983 24.5341 22.6153C25.1533 22.7148 26.0967 22.9834 26.0967 22.9834L28.4325 23.5333L48.9299 30.4147V20.4678L36.7036 16.3631L36.7033 16.3673C36.7033 16.3673 31.9201 14.5947 28.777 13.7062C26.3433 13.0183 24.9936 12.4912 22.4821 12.179C20.2943 11.9071 19.0285 11.797 16.8376 12.0425C14.8732 12.2625 13.7664 12.5255 11.9155 13.212C10.182 13.9021 9.24321 14.4461 7.78727 15.6038C6.30024 16.7863 5.58554 17.6228 4.48193 19.1617C3.27991 20.8378 2.78958 21.9184 2.02834 23.83C1.17708 25.9677 0.906222 27.2541 0.50719 29.5172C0.0572548 32.0691 0.00474493 33.5409 0.000140649 36.1311C-0.00465953 38.8316 0.11227 40.3573 0.526219 43.0267C0.938372 45.6844 1.29163 47.1668 2.1047 49.7327C2.91129 52.2782 3.47137 53.6837 4.65416 56.0814C5.82153 58.4478 6.57875 59.7375 8.09343 61.9032C9.6051 64.0646 10.5533 65.221 12.3794 67.1307C14.2226 69.0583 15.3448 70.0729 17.4689 71.6937C19.613 73.3298 20.8952 74.1672 23.2806 75.436Z" fill="#252D4D"/>
<path d="M61.1728 48.372V73.8216L67.6808 76.0542V24.1619L55.4543 28.239V46.4522L61.1728 48.372Z" fill="#252D4D"/>
<path d="M22.4821 12.179C24.9936 12.4912 26.3433 13.0183 28.777 13.7062C31.9201 14.5947 36.7033 16.3673 36.7033 16.3673L36.7036 16.3631L48.9299 20.4678L98 4.10447L85.774 0L48.971 12.2723L41.0444 9.61544C41.0444 9.61544 37.2611 8.40041 34.7496 8.08823C32.5619 7.8163 31.2961 7.7062 29.1053 7.95169C27.1409 8.17181 26.0932 8.61708 24.1832 9.12149C19.2984 10.4115 16.5925 11.3137 11.9155 13.212C13.7664 12.5255 14.8732 12.2625 16.8376 12.0425C19.0285 11.797 20.2943 11.9071 22.4821 12.179Z" fill="#576187"/>
<path d="M30.5371 46.2963L48.9053 52.4628L61.1728 48.372L55.4543 46.4522L42.8046 42.2055L30.5371 46.2963Z" fill="#576187"/>
<path d="M34.8996 69.904C36.7435 69.9831 39.6066 69.4869 39.6066 69.4869V63.8162C39.6066 63.8162 38.3693 63.3358 37.61 62.9575C36.073 62.1918 35.2805 61.6157 33.9267 60.5652C32.5713 59.5134 31.8583 58.8517 30.698 57.5925C29.524 56.3185 28.928 55.5386 27.9763 54.0949C26.9967 52.609 26.5239 51.7194 25.7855 50.1031C25.0145 48.4156 24.6631 47.4268 24.1494 45.6462C23.6114 43.7813 23.3968 42.705 23.1308 40.7837C22.851 38.7635 22.7817 37.6123 22.7909 35.5734C22.7992 33.7371 22.8224 32.6963 23.1067 30.8817C23.3552 29.2954 23.5156 28.3939 24.0541 26.8795C24.5266 25.5506 24.7358 24.7367 25.5846 23.6051C25.7733 23.3536 26.0967 22.9834 26.0967 22.9834C26.0967 22.9834 25.1533 22.7148 24.5341 22.6153C23.1825 22.3983 22.3825 22.4138 21.0277 22.6104C19.7951 22.7893 19.0902 22.9594 17.9615 23.4806C16.8636 23.9877 16.2825 24.3846 15.3834 25.1876C14.4351 26.0346 14.0011 26.629 13.3169 27.6959C12.5539 28.8856 12.2588 29.6414 11.7863 30.9703C11.2479 32.4846 11.0877 33.3862 10.8392 34.9724C10.555 36.7871 10.5317 37.8279 10.5234 39.6642C10.5142 41.7031 10.5833 42.8543 10.8631 44.8744C11.1291 46.7959 11.3439 47.8723 11.882 49.7374C12.3956 51.518 12.7468 52.5069 13.5178 54.1944C14.2561 55.8105 14.729 56.6999 15.7086 58.1857C16.6604 59.6293 17.2565 60.4091 18.4305 61.683C19.5908 62.9422 20.3039 63.6039 21.6592 64.6557C23.013 65.7064 23.8289 66.2383 25.3425 67.0485C26.8723 67.8673 27.7747 68.2684 29.4276 68.8049C31.4994 69.4772 32.721 69.8105 34.8996 69.904Z" fill="#576187"/>
</svg>

<svg width="98" height="80" fill="none" xmlns="http://www.w3.org/2000/svg"><path d="M79.25 20.304L98 14.051V4.104L48.93 20.468v9.947l6.524-2.176 12.227-4.077v51.892l11.569-3.857V20.304z" fill="#40496C"/><path d="M48.905 52.463v25.4l12.268-4.041v-25.45l-12.268 4.09z" fill="#40496C"/><path d="M23.28 75.436c2.419 1.286 3.849 1.903 6.453 2.763 2.017.666 3.171 1.01 5.267 1.361 1.906.32 2.998.47 4.932.435 1.819-.033 4.625-.548 4.625-.548l4.348-1.585v-25.4l-18.368-6.166v6.6s.146 1.147.555 1.727c.433.614 1.55 1.15 1.55 1.15l6.964 2.338v11.375s-2.863.497-4.706.418c-2.179-.093-3.4-.427-5.472-1.1-1.653-.536-2.556-.937-4.085-1.755-1.514-.81-2.33-1.343-3.684-2.393-1.355-1.052-2.068-1.714-3.229-2.973-1.174-1.274-1.77-2.054-2.721-3.497-.98-1.486-1.453-2.376-2.191-3.992-.771-1.687-1.122-2.676-1.636-4.457-.538-1.865-.753-2.941-1.019-4.863-.28-2.02-.349-3.17-.34-5.21.009-1.836.032-2.877.316-4.692.249-1.586.409-2.487.947-4.002.473-1.329.768-2.084 1.53-3.274.685-1.067 1.12-1.661 2.067-2.508.9-.803 1.48-1.2 2.579-1.707 1.128-.522 1.833-.692 3.066-.87 1.355-.197 2.155-.213 3.506.004.62.1 1.563.368 1.563.368l2.335.55 20.498 6.882v-9.947l-12.226-4.105v.004s-4.784-1.772-7.927-2.66c-2.434-.689-3.783-1.216-6.295-1.528-2.188-.272-3.453-.382-5.644-.136-1.965.22-3.072.482-4.923 1.169-1.733.69-2.672 1.234-4.128 2.392-1.487 1.182-2.201 2.019-3.305 3.558-1.202 1.676-1.692 2.756-2.454 4.668-.85 2.138-1.122 3.424-1.52 5.687C.057 32.07.004 33.541 0 36.131c-.005 2.7.112 4.226.526 6.896.412 2.657.766 4.14 1.579 6.706.806 2.545 1.366 3.95 2.55 6.348 1.167 2.367 1.924 3.656 3.438 5.822 1.512 2.162 2.46 3.318 4.286 5.228 1.844 1.927 2.966 2.942 5.09 4.563 2.144 1.636 3.426 2.473 5.812 3.742zm37.893-27.064v25.45l6.508 2.232V24.162l-12.227 4.077v18.213l5.719 1.92z" fill="#252D4D"/><path d="M22.482 12.179c2.512.312 3.861.84 6.295 1.527 3.143.889 7.926 2.661 7.926 2.661v-.004l12.227 4.105L98 4.104 85.774 0 48.971 12.272l-7.927-2.657S37.261 8.4 34.75 8.088c-2.188-.272-3.454-.382-5.645-.136-1.964.22-3.012.665-4.922 1.17-4.885 1.29-7.59 2.192-12.268 4.09 1.851-.687 2.958-.95 4.923-1.17 2.19-.245 3.456-.135 5.644.137zm8.055 34.117l18.368 6.167 12.268-4.091-5.719-1.92-12.65-4.246-12.267 4.09z" fill="#576187"/><path d="M34.9 69.904c1.843.08 4.707-.417 4.707-.417v-5.67s-1.238-.481-1.997-.86c-1.537-.765-2.33-1.341-3.683-2.392-1.356-1.052-2.069-1.713-3.229-2.972-1.174-1.275-1.77-2.054-2.722-3.498-.98-1.486-1.452-2.376-2.19-3.992-.771-1.687-1.123-2.676-1.637-4.457-.538-1.865-.752-2.941-1.018-4.862-.28-2.02-.35-3.172-.34-5.21.008-1.837.031-2.878.316-4.692.248-1.587.409-2.488.947-4.003.473-1.328.682-2.142 1.53-3.274.19-.251.513-.622.513-.622s-.944-.268-1.563-.368c-1.351-.217-2.151-.201-3.506-.005-1.233.18-1.938.35-3.066.87-1.098.508-1.68.905-2.579 1.708-.948.847-1.382 1.441-2.066 2.508-.763 1.19-1.058 1.945-1.53 3.274-.54 1.515-.7 2.416-.948 4.002-.284 1.815-.307 2.856-.316 4.692-.009 2.04.06 3.19.34 5.21.266 1.922.48 2.998 1.019 4.863.514 1.781.865 2.77 1.636 4.457.738 1.616 1.211 2.506 2.19 3.992.952 1.443 1.548 2.223 2.722 3.497 1.16 1.26 1.874 1.92 3.23 2.973 1.353 1.05 2.169 1.582 3.683 2.392 1.53.82 2.432 1.22 4.085 1.757 2.071.672 3.293 1.005 5.472 1.099z" fill="#576187"/></svg>
